X: 69
T: O'Keefe's #2
B: begged borrowed and stolen
M:12/8
R: slide
Q: 3/8=100
K:G
V:1 
|:"G"B2B cBcd3d2e| "G"dBG dBG  "D"A3 AGA|"G" B3cBc d3 d2 g | "C"fed "D"cBA "G"G3 G3 :|
|:"G"g2dB2 g "D"f2 d c3 | "D"ded c2A "G"dedB2d| "G"g2d B2 "D"g f2d c2B |"C" ABc "D"def "G"g3 g3:|
% abcbook-tune_id 627e2b1f3cdbbbfc0e893656


% abcbook-boost 14
% abcbook-tablature 
% abcbook-transpose 
% abcbook-lastupdated 1656251657668
% abcbook-soundfonts 
% abcbook-repeats 3


